X:37
T:Jack's Whim. JJo.037
B:J.Johnson Choice Collection Vol 8 1758
Z:vmp.Simon Wilson 2013 www.village-music-project.org.uk
Z:Dance added by John Chambers 2017
M:6/8
L:1/8
%Q:3/8=120
K:G
|: D |\
G2D B2G | d2B g2d | efg dcB | cAG FED |\
E<EG F<FA | G<GB A2c | Bdg dcB | {B}A3- A2 :|
|: d |\
d(=fe) dcB | ced cBA | Bdc BAG | FAG FED |\
EFG ABc | FGA Bcd | Bdg B>cA | G3-G2 :|
%%begintext align
%% Cast off and half figure at Top .|.
%% Cross over and turn your Partner :||.
%% Hands 4 at Bottom :||. Right and
%% Left at top :||:
%%endtext
